material/.icons/material/account-multiple-outline.svg

<svg xmlns="http://www.w3.org/2000/svg" viewBox="0 0 24 24"><path d="M13.07 10.41a5 5 0 000-5.82A3.39 3.39 0 0115 4a3.5 3.5 0 010 7 3.39 3.39 0 01-1.93-.59M5.5 7.5A3.5 3.5 0 119 11a3.5 3.5 0 01-3.5-3.5m2 0A1.5 1.5 0 109 6a1.5 1.5 0 00-1.5 1.5M16 17v2H2v-2s0-4 7-4 7 4 7 4m-2 0c-.14-.78-1.33-2-5-2s-4.93 1.31-5 2m11.95-4A5.32 5.32 0 0118 17v2h4v-2s0-3.63-6.06-4z"/></svg>

<?xml version="1.0" encoding="UTF-8"?><!DOCTYPE svg PUBLIC "-//W3C//DTD SVG 1.1//EN" "http://www.w3.org/Graphics/SVG/1.1/DTD/svg11.dtd"><svg xmlns="http://www.w3.org/2000/svg" xmlns:xlink="http://www.w3.org/1999/xlink" version="1.1" id="mdi-account-multiple-outline" width="24" height="24" viewBox="0 0 24 24"><path d="M13.07 10.41A5 5 0 0 0 13.07 4.59A3.39 3.39 0 0 1 15 4A3.5 3.5 0 0 1 15 11A3.39 3.39 0 0 1 13.07 10.41M5.5 7.5A3.5 3.5 0 1 1 9 11A3.5 3.5 0 0 1 5.5 7.5M7.5 7.5A1.5 1.5 0 1 0 9 6A1.5 1.5 0 0 0 7.5 7.5M16 17V19H2V17S2 13 9 13 16 17 16 17M14 17C13.86 16.22 12.67 15 9 15S4.07 16.31 4 17M15.95 13A5.32 5.32 0 0 1 18 17V19H22V17S22 13.37 15.94 13Z" /></svg>
